X: 14228
T: Funky Spider, The
R: jig
M: 6/8
K: Bminor
|:BBB FBe|dcA BBB|FBd fed|eee edc|
BBB FBe|dcA ~B2F|E2F EFA|1 ~B2F EFA:|2 ~B2F Ecd||
|:f2e gag|fff def|efe AB/c/d|~e2c Ace|aec Acg|
fdB ~G3|FGA GAB|1 AB/c/d ede:|2 dcd edc||

